X: 141
T: Portsmouth
M:4/4
L:1/8
Q:160
S:Playford
O:Manuscript
A:English
K:G
D2|G3 A BAGD|E4 e4|d2 B2 cBAG|A6 D2|G2 F BAGF|E4 e4|d2 B2 cBAB| G6:|
|: d2|g3 a bagf|g2 d4 B2|g2 B2 cBAG| A6 D2|G3 A BAGF|E4 e4|d2 B2 cBAB| G6:|

